css.light.svg

<svg xmlns="http://www.w3.org/2000/svg" width="1000" height="1000" viewBox="0 0 1000 1000" fill="none">
  <path fill="#fff" d="M0 0H840C882.435 0 923.131 16.8571 953.137 46.8629C983.143 76.8687 1000 117.565 1000 160V840C1000 882.435 983.143 923.131 953.137 953.137C923.131 983.143 882.435 1000 840 1000H160C117.565 1000 76.8687 983.143 46.8629 953.137C16.8571 923.131 0 882.435 0 840V0Z"/>
  <path fill="#000" d="M817.5 923.1C785.2 923.1 760.5 913.7 743.2 894.8C726.1 875.8 717.2 848.7 716.4 813.3H786C786.4 844.6 797.4 860.3 819 860.3C830 860.3 837.8 856.8 842.3 849.9C846.7 843 849 832 849 816.9C849 804.9 846 794.9 840.2 787C832.326 777.611 822.216 770.354 810.8 765.9L785 753.5C762 742.5 745.3 729.5 735 714.3C725 699.2 720 678 720 650.9C720 620.6 728.8 596 746.3 577.1C764.3 558.2 788.8 548.8 820.1 548.8C850.3 548.8 873.7 558.1 890.2 576.6C907 595.2 915.8 621.8 916.5 656.6H849.5C849.906 645.225 847.61 633.916 842.8 623.6C839 616 831.6 612.2 820.6 612.2C801 612.2 791.2 623.9 791.2 647.2C791.2 659 793.6 668.2 798.4 675.2C805.323 682.937 813.998 688.904 823.7 692.6L848.4 703.5C873.9 715.2 892.3 729.5 903.6 746.8C915 764 920.6 787 920.6 815.8C920.6 850.3 911.6 876.8 893.3 895.3C875.1 913.8 849.8 923.1 817.5 923.1ZM592.7 923.1C560.4 923.1 535.7 913.7 518.4 894.8C501.3 875.8 492.4 848.7 491.6 813.3H561.2C561.6 844.6 572.6 860.3 594.2 860.3C605.2 860.3 613 856.8 617.4 849.9C621.9 843 624.1 832 624.1 816.9C624.1 804.9 621.2 794.9 615.4 787C607.526 777.611 597.416 770.354 586 765.9L560.2 753.5C537.2 742.5 520.5 729.5 510.2 714.3C500.2 699.2 495.2 678 495.2 650.9C495.2 620.6 504 596 521.5 577.1C539.5 558.2 564 548.8 595.3 548.8C625.5 548.8 648.9 558.1 665.3 576.6C682.3 595.2 691 621.8 691.7 656.6H624.7C625.106 645.225 622.81 633.916 618 623.6C614.2 616 606.8 612.2 595.8 612.2C576.2 612.2 566.4 623.9 566.4 647.2C566.4 659 568.8 668.2 573.6 675.2C580.523 682.937 589.198 688.904 598.9 692.6L623.6 703.5C649.1 715.2 667.5 729.5 678.8 746.8C690.1 764 695.8 787 695.8 815.8C695.8 850.3 686.7 876.8 668.5 895.3C650.3 913.8 625 923.1 592.7 923.1ZM358.6 923.1C327 923.1 301.9 914.5 283.3 897.3C264.7 880.2 255.5 854.5 255.5 820.5V652.5C255.5 618.7 265.3 593.1 284.9 575.5C304.8 558.1 330.9 549.3 363.2 549.3C394.5 549.3 419.2 558.3 437.5 576.1C456 594 465.3 620.6 465.3 656.1V669.4H391.6V656.5C391.6 642.8 388.6 632.7 382.8 626.1C380.265 622.803 376.988 620.152 373.234 618.362C369.48 616.572 365.357 615.694 361.2 615.8C349.2 615.8 340.7 619.9 335.9 628.2C330.784 639.693 328.487 652.241 329.2 664.8V810.8C329.2 841.3 339.9 856.8 361.2 857.1C371.2 857.1 378.7 853.5 383.9 846.3C389.552 837.208 392.243 826.586 391.6 815.9V805H465.3V816.4C465.3 840.1 460.7 859.9 451.4 875.7C442.559 891.12 429.283 903.524 413.3 911.3C396.239 919.453 377.505 923.495 358.6 923.1Z"/>
</svg>

<svg xmlns="http://www.w3.org/2000/svg" width="1000" height="1000" fill="none">
  <path fill="#fff" d="M0 0h840a160 160 0 0 1 160 160v680a160 160 0 0 1-160 160H160A160 160 0 0 1 0 840V0Z"/>
  <path fill="#000" d="M817.5 923.1c-32.3 0-57-9.4-74.3-28.3-17.1-19-26-46.1-26.8-81.5H786c.4 31.3 11.4 47 33 47 11 0 18.8-3.5 23.3-10.4 4.4-6.9 6.7-17.9 6.7-33 0-12-3-22-8.8-29.9a73 73 0 0 0-29.4-21.1L785 753.5c-23-11-39.7-24-50-39.2-10-15.1-15-36.3-15-63.4 0-30.3 8.8-54.9 26.3-73.8 18-18.9 42.5-28.3 73.8-28.3 30.2 0 53.6 9.3 70.1 27.8 16.8 18.6 25.6 45.2 26.3 80h-67a72 72 0 0 0-6.7-33c-3.8-7.6-11.2-11.4-22.2-11.4-19.6 0-29.4 11.7-29.4 35 0 11.8 2.4 21 7.2 28a65 65 0 0 0 25.3 17.4l24.7 10.9c25.5 11.7 43.9 26 55.2 43.3 11.4 17.2 17 40.2 17 69 0 34.5-9 61-27.3 79.5-18.2 18.5-43.5 27.8-75.8 27.8Zm-224.8 0c-32.3 0-57-9.4-74.3-28.3-17.1-19-26-46.1-26.8-81.5h69.6c.4 31.3 11.4 47 33 47 11 0 18.8-3.5 23.2-10.4 4.5-6.9 6.7-17.9 6.7-33 0-12-2.9-22-8.7-29.9a73 73 0 0 0-29.4-21.1l-25.8-12.4c-23-11-39.7-24-50-39.2-10-15.1-15-36.3-15-63.4 0-30.3 8.8-54.9 26.3-73.8 18-18.9 42.5-28.3 73.8-28.3 30.2 0 53.6 9.3 70 27.8 17 18.6 25.7 45.2 26.4 80h-67a72 72 0 0 0-6.7-33c-3.8-7.6-11.2-11.4-22.2-11.4-19.6 0-29.4 11.7-29.4 35 0 11.8 2.4 21 7.2 28a65 65 0 0 0 25.3 17.4l24.7 10.9c25.5 11.7 43.9 26 55.2 43.3 11.3 17.2 17 40.2 17 69 0 34.5-9.1 61-27.3 79.5-18.2 18.5-43.5 27.8-75.8 27.8Zm-234.1 0c-31.6 0-56.7-8.6-75.3-25.8-18.6-17.1-27.8-42.8-27.8-76.8v-168c0-33.8 9.8-59.4 29.4-77 19.9-17.4 46-26.2 78.3-26.2 31.3 0 56 9 74.3 26.8 18.5 17.9 27.8 44.5 27.8 80v13.3h-73.7v-12.9c0-13.7-3-23.8-8.8-30.4a26.4 26.4 0 0 0-21.6-10.3c-12 0-20.5 4.1-25.3 12.4a79 79 0 0 0-6.7 36.6v146c0 30.5 10.7 46 32 46.3 10 0 17.5-3.6 22.7-10.8a51.7 51.7 0 0 0 7.7-30.4V805h73.7v11.4c0 23.7-4.6 43.5-13.9 59.3a88.6 88.6 0 0 1-38.1 35.6 121 121 0 0 1-54.7 11.8Z"/>
</svg>
